svg/alert_remove.svg

<svg xmlns="http://www.w3.org/2000/svg" viewBox="0 0 24 24"><path d="M14 19c0-2.79 1.91-5.13 4.5-5.8L12 2 1 21h13.35c-.22-.63-.35-1.3-.35-2m-1-1h-2v-2h2zm0-4h-2v-4h2zm10.54 2.88L21.41 19l2.13 2.12-1.42 1.42L20 20.41l-2.12 2.13-1.41-1.42L18.59 19l-2.12-2.12 1.41-1.41L20 17.59l2.12-2.13z"/></svg>

<?xml version="1.0" encoding="UTF-8"?><!DOCTYPE svg PUBLIC "-//W3C//DTD SVG 1.1//EN" "http://www.w3.org/Graphics/SVG/1.1/DTD/svg11.dtd"><svg xmlns="http://www.w3.org/2000/svg" xmlns:xlink="http://www.w3.org/1999/xlink" version="1.1" id="mdi-alert-remove" width="24" height="24" viewBox="0 0 24 24"><path d="M14 19C14 16.21 15.91 13.87 18.5 13.2L12 2L1 21H14.35C14.13 20.37 14 19.7 14 19M13 18H11V16H13V18M13 14H11V10H13V14M23.54 16.88L21.41 19L23.54 21.12L22.12 22.54L20 20.41L17.88 22.54L16.47 21.12L18.59 19L16.47 16.88L17.88 15.47L20 17.59L22.12 15.46L23.54 16.88Z" /></svg>
